packages/devextreme-scss/images/icons/generic/packagebox.svg

<svg width="18" height="18" viewBox="0 0 18 18" fill="none" xmlns="http://www.w3.org/2000/svg">
<title>packagebox</title>
<path fill-rule="evenodd" clip-rule="evenodd" d="M8.77639 2.1118L2.27639 5.3618C2.107 5.4465 2 5.61963 2 5.80901V11.7098C2 11.8893 2.09614 12.0549 2.25193 12.144L8.75193 15.8582C8.90565 15.9461 9.09435 15.9461 9.24807 15.8582L15.7481 12.144C15.9039 12.0549 16 11.8893 16 11.7098V5.80901C16 5.61963 15.893 5.4465 15.7236 5.3618L9.22361 2.1118C9.08284 2.04142 8.91716 2.04142 8.77639 2.1118ZM9 4L4 6.5L5.25 7.1875L12.75 5.875L7.75 8.5625L9 9.25L14 6.5L12.75 5.875L5.25 7.1875L10.25 4.625L9 4ZM8 13.5V10.5L4 8.25V11.25L8 13.5ZM10 10.5V13.5L14 11.25V8.25L10 10.5Z" fill="#333333"/>
</svg>

<!-- Generated by IcoMoon.io -->
<svg version="1.1" xmlns="http://www.w3.org/2000/svg" width="18" height="18" viewBox="0 0 18 18">
<path d="M8.776 2.112c0.141-0.070 0.306-0.070 0.447 0l6.5 3.25c0.169 0.085 0.276 0.258 0.276 0.447v5.901c0 0.18-0.096 0.345-0.252 0.434l-6.5 3.714c-0.154 0.088-0.342 0.088-0.496 0l-6.5-3.714c-0.156-0.089-0.252-0.255-0.252-0.434v-5.901c0-0.189 0.107-0.363 0.276-0.447l6.5-3.25zM9 4l-5 2.5 1.25 0.687 7.5-1.313-5 2.688 1.25 0.687 5-2.75-1.25-0.625-7.5 1.313 5-2.563-1.25-0.625zM8 13.5v-3l-4-2.25v3l4 2.25zM10 10.5v3l4-2.25v-3l-4 2.25z"></path>
</svg>
